X: 305812
M: 2/4
L: 1/16
K: G
dfaf dfaf | d2b2b2a2 | g2bg f2af | fege d^cBA |\
dfaf dfaf | d2b2b2a2 | g2bg gfaf | bge^c d4 |\
b2cB c2c2 | a2BA B2B2 | cBAG FGAB | AGFE "^D.C."D4 |]


